resources/svg/major-apps.svg

<svg xmlns="http://www.w3.org/2000/svg" viewBox="0 0 20 20" fill="currentColor"><path d="M9 9h-8v-6.5a1.5 1.5 0 0 1 1.5-1.5h6.5v8zm0 2v8h-6.5a1.5 1.5 0 0 1-1.5-1.5v-6.5h8zm2 0v8h6.5a1.5 1.5 0 0 0 1.5-1.5v-6.5h-8zm4-10a1 1 0 0 1 1 1v2h2a1 1 0 1 1 0 2h-2v2a1 1 0 1 1-2 0v-2h-2a1 1 0 1 1 0-2h2v-2a1 1 0 0 1 1-1z"/></svg>

<svg xmlns="http://www.w3.org/2000/svg" viewBox="0 0 20 20" fill="currentColor"><path d="M9 9H1V2.5A1.5 1.5 0 012.5 1H9v8zM9 11v8H2.5A1.5 1.5 0 011 17.5V11h8zM11 11v8h6.5a1.5 1.5 0 001.5-1.5V11h-8zM15 1a1 1 0 011 1v2h2a1 1 0 110 2h-2v2a1 1 0 11-2 0V6h-2a1 1 0 110-2h2V2a1 1 0 011-1z" fill="#5C5F62"/></svg>
